icons/universal-access.svg

<svg width="24" height="24" viewBox="0 0 24 24" fill="none" xmlns="http://www.w3.org/2000/svg">
<path fill-rule="evenodd" clip-rule="evenodd" d="M12 2C17.5228 2 22 6.47715 22 12C22 17.5228 17.5228 22 12 22C6.47715 22 2 17.5228 2 12C2 6.47715 6.47715 2 12 2ZM12 4C7.58172 4 4 7.58172 4 12C4 16.4183 7.58172 20 12 20C16.4183 20 20 16.4183 20 12C20 7.58172 16.4183 4 12 4ZM16.9546 9.4213C17.1472 9.98117 16.9745 10.3911 16.4363 10.6512L13.9872 11.3375V14.0954C13.9875 14.3832 14.2342 15.6424 14.7273 17.873C14.828 18.4463 14.5813 18.8175 13.9872 18.9865C13.3932 19.1555 12.985 18.8947 12.7628 18.2041L11.9876 14.0075L11.2074 18.2041C11.0476 18.8391 10.6573 19.0999 10.0368 18.9865C9.41623 18.8732 9.15219 18.5031 9.24467 17.8763C9.74108 15.6508 9.98929 14.3905 9.98929 14.0954C10.0126 13.1886 10.0126 12.2804 9.98929 11.3707L7.69983 10.759C7.04937 10.5578 6.81277 10.1493 6.99002 9.53351C7.16726 8.91771 7.57551 8.68201 8.21476 8.82641L9.97999 9.29769C10.6015 9.45864 11.2707 9.53674 11.9876 9.532C12.7045 9.52726 13.3712 9.44032 13.9876 9.27118L15.8027 8.78182C16.378 8.64827 16.762 8.86144 16.9546 9.4213ZM12 5C13.1046 5 14 5.89543 14 7C14 8.10457 13.1046 9 12 9C10.8954 9 10 8.10457 10 7C10 5.89543 10.8954 5 12 5Z" fill="#3A3A47"/>
</svg>

<svg xmlns="http://www.w3.org/2000/svg" width="24" height="24" viewBox="0 0 24 24">
    <path fill="#3A3A47" fill-rule="evenodd" d="M12 2c5.523 0 10 4.477 10 10s-4.477 10-10 10S2 17.523 2 12 6.477 2 12 2zm0 2a8 8 0 1 0 0 16 8 8 0 0 0 0-16zm4.955 5.421c.192.56.02.97-.519 1.23l-2.449.686v2.758c0 .288.247 1.547.74 3.778.101.573-.146.945-.74 1.114-.594.169-1.002-.092-1.224-.783l-.775-4.196-.78 4.196c-.16.635-.55.896-1.171.783-.62-.114-.885-.484-.792-1.11.496-2.226.744-3.486.744-3.782a52.99 52.99 0 0 0 0-2.724l-2.29-.612c-.65-.201-.886-.61-.709-1.225.177-.616.586-.852 1.225-.708l1.765.472a7.78 7.78 0 0 0 2.008.234 7.73 7.73 0 0 0 2-.26l1.815-.49c.575-.134.959.08 1.152.64zM12 5a2 2 0 1 1 0 4 2 2 0 0 1 0-4z"/>
</svg>
